;START_OF_HEADER
;HEADER_VERSION:0.1
;FLAVOR:Griffin
;GENERATOR.NAME:Cura_SteamEngine
;GENERATOR.VERSION:5.8.1
;GENERATOR.BUILD_DATE:2024-08-28
;TARGET_MACHINE.NAME:Ultimaker S3
;EXTRUDER_TRAIN.0.INITIAL_TEMPERATURE:205
;EXTRUDER_TRAIN.0.MATERIAL.VOLUME_USED:86
;EXTRUDER_TRAIN.0.MATERIAL.GUID:44a029e6-e31b-4c9e-a12f-9282e29a92ff
;EXTRUDER_TRAIN.0.NOZZLE.DIAMETER:0.4
;EXTRUDER_TRAIN.0.NOZZLE.NAME:AA 0.4
;BUILD_PLATE.INITIAL_TEMPERATURE:60
;PRINT.TIME:37
;PRINT.GROUPS:1
;PRINT.SIZE.MIN.X:81.76
;PRINT.SIZE.MIN.Y:61.76
;PRINT.SIZE.MIN.Z:0.2
;PRINT.SIZE.MAX.X:180
;PRINT.SIZE.MAX.Y:180
;PRINT.SIZE.MAX.Z:20.001
;SLICE_UUID:fb668d60-32a6-4c3c-ba80-8069f2f91758
;END_OF_HEADER
;Generated with Cura_SteamEngine 5.8.1
T0
M82 ;absolute extrusion mode

G92 E0
M190 S60
M104 S205
M109 S205
G280 S1
G0 Z20.001
G1 F2700 E-6.5
;LAYER_COUNT:2
G0 F9000 X180 Y180
;LAYER:0
M106 S255
M204 S1500
M205 X30 Y30
G1 F600 Z2.2
G0 F9000 X146.863 Y127.655 Z2.2
;TYPE:SKIRT
G1 F600 Z0.2
G1 F2700 E0
G1 F1800 X145.956 Y128.094 E0.01264
G1 X145.293 Y128.239 E0.02115
G1 X85.025 Y128.24 E0.77693
G1 X84.424 Y128.184 E0.7845
G1 X83.934 Y128.059 E0.79084
G1 X83.044 Y127.587 E0.80347
G1 X82.665 Y127.252 E0.80982
G1 X82.089 Y126.425 E0.82246
G1 X81.905 Y125.954 E0.8288
G1 X81.761 Y125.007 E0.84081
G1 X81.76 Y65.023 E1.59303
G1 X81.816 Y64.422 E1.6006
G1 X82.143 Y63.469 E1.61324
G1 X82.414 Y63.042 E1.61958
G1 X83.14 Y62.343 E1.63222
G1 X84.048 Y61.904 E1.64486
G1 X84.987 Y61.761 E1.65678
G1 X144.97 Y61.76 E2.40898
G1 X145.58 Y61.817 E2.41667
G1 X146.07 Y61.943 E2.42301
G1 X146.96 Y62.417 E2.43566
G1 X147.338 Y62.752 E2.44199
G1 X147.913 Y63.58 E2.45463
G1 X148.096 Y64.051 E2.46097
G1 X148.239 Y64.711 E2.46944
G1 X148.24 Y124.344 E3.21726
G1 X148.227 Y125.41 E3.23063
G1 X148.06 Y126.064 E3.23909
G1 X147.588 Y126.955 E3.25174
G1 X146.863 Y127.655 E3.26437
;MESH:rectangle.stl
G0 F9000 X144.726 Y124.726
;TYPE:WALL-OUTER
G1 F1701.2 X144.773 Y124.568 E3.26677
G1 F1943.3 X144.774 Y65.512 E4.02642
G1 F1710.2 X144.727 Y65.273 E4.02994
G1 F1719.3 X144.536 Y65.224 E4.03278
G1 F1966.3 X115.008 Y65.224 E4.40853
G1 F1954.8 X85.48 Y65.225 E4.78632
G1 F1714.7 X85.272 Y65.272 E4.78939
G1 F1723.8 X85.224 Y65.46 E4.79218
G1 F1966.3 X85.224 Y94.988 E5.16793
G1 F1954.8 X85.225 Y124.516 E5.54572
G1 F1710.2 X85.273 Y124.727 E5.54885
G1 X85.46 Y124.774 E5.55164
G1 F1943.3 X114.988 Y124.774 E5.93146
G1 F1932 X144.516 Y124.773 E6.31333
G1 F1696.8 X144.726 Y124.726 E6.31646
;MESH:NONMESH
G0 F600 X144.726 Y124.726 Z0.4
G0 F9000 X146.863 Y127.655
;TIME_ELAPSED:20.751127
;LAYER:1
;TYPE:SKIRT
G1 F1800 X145.956 Y128.094 E6.32909
G1 X145.293 Y128.239 E6.33761
G1 X85.025 Y128.24 E7.09339
G1 X84.424 Y128.184 E7.10096
G1 X83.934 Y128.059 E7.1073
G1 X83.044 Y127.587 E7.11993
G1 X82.665 Y127.252 E7.12628
G1 X82.089 Y126.425 E7.13891
G1 X81.905 Y125.954 E7.14526
G1 X81.761 Y125.007 E7.15727
G1 X81.76 Y65.023 E7.90949
G1 X81.816 Y64.422 E7.91706
G1 X82.143 Y63.469 E7.92969
G1 X82.414 Y63.042 E7.93604
G1 X83.14 Y62.343 E7.94867
G1 X84.048 Y61.904 E7.96132
G1 X84.987 Y61.761 E7.97323
G1 X144.97 Y61.76 E8.72544
G1 X145.58 Y61.817 E8.73313
G1 X146.07 Y61.943 E8.73947
G1 X146.96 Y62.417 E8.75212
G1 X147.338 Y62.752 E8.75845
G1 X147.913 Y63.58 E8.77109
G1 X148.096 Y64.051 E8.77743
G1 X148.239 Y64.711 E8.7859
G1 X148.24 Y124.344 E9.53372
G1 X148.227 Y125.41 E9.54708
G1 X148.06 Y126.064 E9.55555
G1 X147.588 Y126.955 E9.56819
G1 X146.863 Y127.655 E9.58083
;MESH:rectangle.stl
G0 F9000 X144.728 Y124.728
;TYPE:WALL-OUTER
G1 F1187.9 X144.738 Y124.689 E9.58156
G1 X144.773 Y124.554 E9.58409
G1 F1800 X144.774 Y65.488 E10.57109
G1 F1195 X144.756 Y65.397 E10.57276
G1 X144.73 Y65.27 E10.57511
G1 F1199.8 X144.689 Y65.262 E10.57586
G1 X144.508 Y65.224 E10.57919
G1 F1800 X114.975 Y65.224 E11.06991
G1 X85.442 Y65.225 E11.56248
G1 F1192.6 X85.405 Y65.235 E11.56317
G1 X85.269 Y65.269 E11.56571
G1 F1199.8 X85.261 Y65.31 E11.56646
G1 X85.224 Y65.488 E11.56973
G1 F1800 X85.224 Y95.021 E12.06045
G1 X85.225 Y124.554 E12.55302
G1 F1190.2 X85.235 Y124.594 E12.55377
G1 X85.27 Y124.73 E12.55631
G1 F1192.6 X85.31 Y124.738 E12.55705
G1 X85.488 Y124.774 E12.56034
G1 F1800 X115.021 Y124.774 E13.05476
G1 X144.554 Y124.773 E13.55104
G1 F1183.2 X144.592 Y124.763 E13.55175
G1 X144.728 Y124.728 E13.55431
;TIME_ELAPSED:37.487028
G1 F2700 E7.05431
M140 S0
M204 S3000
M205 X20 Y20
M107

M82 ;absolute extrusion mode
M104 S0
M104 T1 S0
;End of Gcode
;SETTING_3 {"global_quality": "[general]\\nversion = 4\\nname = Fast #2\\ndefini
;SETTING_3 tion = ultimaker_s3\\n\\n[metadata]\\ntype = quality_changes\\nqualit
;SETTING_3 y_type = draft\\nsetting_version = 23\\n\\n[values]\\nadhesion_type =
;SETTING_3  skirt\\n\\n", "extruder_quality": ["[general]\\nversion = 4\\nname =
;SETTING_3  Fast #2\\ndefinition = ultimaker_s3\\n\\n[metadata]\\ntype = quality
;SETTING_3 _changes\\nquality_type = draft\\nsetting_version = 23\\nposition = 0
;SETTING_3 \\n\\n[values]\\n\\n", "[general]\\nversion = 4\\nname = Fast #2\\nde
;SETTING_3 finition = ultimaker_s3\\n\\n[metadata]\\ntype = quality_changes\\nqu
;SETTING_3 ality_type = draft\\nsetting_version = 23\\nposition = 1\\n\\n[values
;SETTING_3 ]\\n\\n"]}
